src/resources/assets/check.svg

<svg xmlns="http://www.w3.org/2000/svg" width="16" height="16"><path d="M 4.5 3 C 3.671875 3 3 3.671875 3 4.5 L 3 11.5 C 3 12.328125 3.671875 13 4.5 13 L 11.5 13 C 12.328125 13 13 12.328125 13 11.5 L 13 4.5 C 13 3.671875 12.328125 3 11.5 3 Z M 4.5 4 L 11.5 4 C 11.777344 4 12 4.222656 12 4.5 L 12 11.5 C 12 11.777344 11.777344 12 11.5 12 L 4.5 12 C 4.222656 12 4 11.777344 4 11.5 L 4 4.5 C 4 4.222656 4.222656 4 4.5 4 Z M 4.5 4" fill="#ddd"/></svg>

<svg xmlns="http://www.w3.org/2000/svg" width="16" height="16"><path d="M4.5 3A1.5 1.5 0 003 4.5v7A1.5 1.5 0 004.5 13h7a1.5 1.5 0 001.5-1.5v-7A1.5 1.5 0 0011.5 3zm0 1h7c.277 0 .5.223.5.5v7c0 .277-.223.5-.5.5h-7a.498.498 0 01-.5-.5v-7c0-.277.223-.5.5-.5zm0 0" fill="#ddd"/></svg>
